austria/municipalities/70627.svg

<?xml version="1.0" encoding="UTF-8"?>
<!DOCTYPE svg PUBLIC "-//W3C//DTD SVG 1.1//EN" "http://www.w3.org/Graphics/SVG/1.1/DTD/svg11.dtd">
<svg xmlns="http://www.w3.org/2000/svg" version="1.1" width="166px" height="192px" style="shape-rendering:geometricPrecision; text-rendering:geometricPrecision; image-rendering:optimizeQuality; fill-rule:evenodd; clip-rule:evenodd" xmlns:xlink="http://www.w3.org/1999/xlink">
<g><path style="opacity:1" fill="#090605" d="M -0.5,-0.5 C 54.8333,-0.5 110.167,-0.5 165.5,-0.5C 165.5,39.1667 165.5,78.8333 165.5,118.5C 157.621,158.712 133.621,183.045 93.5,191.5C 86.1667,191.5 78.8333,191.5 71.5,191.5C 30.4674,182.802 6.46741,157.802 -0.5,116.5C -0.5,77.5 -0.5,38.5 -0.5,-0.5 Z"/></g>
<g><path style="opacity:1" fill="#43403e" d="M 160.5,4.5 C 108.5,3.16667 56.5,3.16667 4.5,4.5C 3.95691,4.44001 3.62358,4.10667 3.5,3.5C 56.1667,2.16667 108.833,2.16667 161.5,3.5C 161.376,4.10667 161.043,4.44001 160.5,4.5 Z"/></g>
<g><path style="opacity:1" fill="#fdfdfd" d="M 160.5,4.5 C 160.5,5.16667 160.5,5.83333 160.5,6.5C 144.707,41.0945 129.707,76.0945 115.5,111.5C 113.707,113.426 112.707,115.759 112.5,118.5C 110.707,120.426 109.707,122.759 109.5,125.5C 107.707,127.426 106.707,129.759 106.5,132.5C 104.707,134.426 103.707,136.759 103.5,139.5C 101.707,141.426 100.707,143.759 100.5,146.5C 98.7073,148.426 97.7073,150.759 97.5,153.5C 95.7073,155.426 94.7073,157.759 94.5,160.5C 92.7073,162.426 91.7073,164.759 91.5,167.5C 89.7073,169.426 88.7073,171.759 88.5,174.5C 86.7073,176.426 85.7073,178.759 85.5,181.5C 84.5207,182.765 83.5207,184.099 82.5,185.5C 75.0627,168.3 67.396,151.3 59.5,134.5C 58.0684,129.522 56.0684,124.856 53.5,120.5C 52.0684,115.522 50.0684,110.856 47.5,106.5C 46.0684,101.522 44.0684,96.8556 41.5,92.5C 40.0684,87.5223 38.0684,82.8556 35.5,78.5C 35.2927,75.7594 34.2927,73.4261 32.5,71.5C 32.2927,68.7594 31.2927,66.4261 29.5,64.5C 29.2927,61.7594 28.2927,59.4261 26.5,57.5C 26.2927,54.7594 25.2927,52.4261 23.5,50.5C 23.2927,47.7594 22.2927,45.4261 20.5,43.5C 20.2927,40.7594 19.2927,38.4261 17.5,36.5C 17.2927,33.7594 16.2927,31.4261 14.5,29.5C 14.2927,26.7594 13.2927,24.4261 11.5,22.5C 11.2927,19.7594 10.2927,17.4261 8.5,15.5C 8.29268,12.7594 7.29268,10.4261 5.5,8.5C 5.56745,7.04125 5.23411,5.70792 4.5,4.5C 56.5,3.16667 108.5,3.16667 160.5,4.5 Z"/></g>
<g><path style="opacity:1" fill="#2d1713" d="M 161.5,112.5 C 161.667,77.4984 161.5,42.4984 161,7.5C 146.058,42.3735 130.891,77.0402 115.5,111.5C 129.707,76.0945 144.707,41.0945 160.5,6.5C 161.117,6.38929 161.617,6.05596 162,5.5C 162.831,41.3357 162.664,77.0024 161.5,112.5 Z"/></g>
<g><path style="opacity:1" fill="#d63023" d="M 5.5,8.5 C 5.70732,11.2406 6.70732,13.5739 8.5,15.5C 8.70732,18.2406 9.70732,20.5739 11.5,22.5C 11.7073,25.2406 12.7073,27.5739 14.5,29.5C 14.7073,32.2406 15.7073,34.5739 17.5,36.5C 17.7073,39.2406 18.7073,41.5739 20.5,43.5C 20.7073,46.2406 21.7073,48.5739 23.5,50.5C 23.7073,53.2406 24.7073,55.5739 26.5,57.5C 26.7073,60.2406 27.7073,62.5739 29.5,64.5C 29.7073,67.2406 30.7073,69.5739 32.5,71.5C 32.7073,74.2406 33.7073,76.5739 35.5,78.5C 36.5422,83.6422 38.5422,88.3089 41.5,92.5C 42.5422,97.6422 44.5422,102.309 47.5,106.5C 48.5422,111.642 50.5422,116.309 53.5,120.5C 54.5422,125.642 56.5422,130.309 59.5,134.5C 66.3152,152.121 73.6485,169.455 81.5,186.5C 48.4158,186.016 24.5825,170.682 10,140.5C 7.06601,133.432 5.06601,126.098 4,118.5C 3.33333,81.1667 3.33333,43.8333 4,6.5C 4.27842,7.4158 4.77842,8.08247 5.5,8.5 Z"/></g>
<g><path style="opacity:1" fill="#d73023" d="M 161.5,112.5 C 156.303,156.697 131.636,181.697 87.5,187.5C 85.9549,187.489 84.6216,187.156 83.5,186.5C 84.9313,185.22 85.5979,183.553 85.5,181.5C 87.2927,179.574 88.2927,177.241 88.5,174.5C 90.2927,172.574 91.2927,170.241 91.5,167.5C 93.2927,165.574 94.2927,163.241 94.5,160.5C 96.2927,158.574 97.2927,156.241 97.5,153.5C 99.2927,151.574 100.293,149.241 100.5,146.5C 102.293,144.574 103.293,142.241 103.5,139.5C 105.293,137.574 106.293,135.241 106.5,132.5C 108.293,130.574 109.293,128.241 109.5,125.5C 111.293,123.574 112.293,121.241 112.5,118.5C 114.293,116.574 115.293,114.241 115.5,111.5C 130.891,77.0402 146.058,42.3735 161,7.5C 161.5,42.4984 161.667,77.4984 161.5,112.5 Z"/></g>
<g><path style="opacity:1" fill="#2f221f" d="M 5.5,8.5 C 7.29268,10.4261 8.29268,12.7594 8.5,15.5C 6.70732,13.5739 5.70732,11.2406 5.5,8.5 Z"/></g>
<g><path style="opacity:1" fill="#2e221f" d="M 8.5,15.5 C 10.2927,17.4261 11.2927,19.7594 11.5,22.5C 9.70732,20.5739 8.70732,18.2406 8.5,15.5 Z"/></g>
<g><path style="opacity:1" fill="#2e221f" d="M 11.5,22.5 C 13.2927,24.4261 14.2927,26.7594 14.5,29.5C 12.7073,27.5739 11.7073,25.2406 11.5,22.5 Z"/></g>
<g><path style="opacity:1" fill="#2e221f" d="M 14.5,29.5 C 16.2927,31.4261 17.2927,33.7594 17.5,36.5C 15.7073,34.5739 14.7073,32.2406 14.5,29.5 Z"/></g>
<g><path style="opacity:1" fill="#2e221f" d="M 17.5,36.5 C 19.2927,38.4261 20.2927,40.7594 20.5,43.5C 18.7073,41.5739 17.7073,39.2406 17.5,36.5 Z"/></g>
<g><path style="opacity:1" fill="#030202" d="M 85.5,79.5 C 83.9551,75.9986 81.7884,75.6653 79,78.5C 78.502,81.4816 78.3354,84.4816 78.5,87.5C 66.1667,87.5 53.8333,87.5 41.5,87.5C 41.3505,86.448 41.5172,85.448 42,84.5C 46.0352,80.7998 49.7019,76.7998 53,72.5C 62.3456,61.821 72.3456,51.821 83,42.5C 96.773,56.0141 110.106,70.0141 123,84.5C 123.483,85.448 123.649,86.448 123.5,87.5C 111.167,87.5 98.8333,87.5 86.5,87.5C 86.8064,84.6146 86.4731,81.9479 85.5,79.5 Z"/></g>
<g><path style="opacity:1" fill="#2e221f" d="M 20.5,43.5 C 22.2927,45.4261 23.2927,47.7594 23.5,50.5C 21.7073,48.5739 20.7073,46.2406 20.5,43.5 Z"/></g>
<g><path style="opacity:1" fill="#2e221f" d="M 23.5,50.5 C 25.2927,52.4261 26.2927,54.7594 26.5,57.5C 24.7073,55.5739 23.7073,53.2406 23.5,50.5 Z"/></g>
<g><path style="opacity:1" fill="#2e221f" d="M 26.5,57.5 C 28.2927,59.4261 29.2927,61.7594 29.5,64.5C 27.7073,62.5739 26.7073,60.2406 26.5,57.5 Z"/></g>
<g><path style="opacity:1" fill="#2e221f" d="M 29.5,64.5 C 31.2927,66.4261 32.2927,68.7594 32.5,71.5C 30.7073,69.5739 29.7073,67.2406 29.5,64.5 Z"/></g>
<g><path style="opacity:1" fill="#2e221f" d="M 32.5,71.5 C 34.2927,73.4261 35.2927,75.7594 35.5,78.5C 33.7073,76.5739 32.7073,74.2406 32.5,71.5 Z"/></g>
<g><path style="opacity:1" fill="#040403" d="M 85.5,79.5 C 85.5,83.8333 85.5,88.1667 85.5,92.5C 88.5,92.5 91.5,92.5 94.5,92.5C 94.8124,103.539 95.3124,114.539 96,125.5C 93.3333,126.833 90.6667,126.833 88,125.5C 87.9655,116.509 88.1322,107.509 88.5,98.5C 85.5,98.5 82.5,98.5 79.5,98.5C 79.3338,92.1579 79.5005,85.8246 80,79.5C 81.8278,78.2475 83.6612,78.2475 85.5,79.5 Z"/></g>
<g><path style="opacity:1" fill="#918d8a" d="M 85.5,79.5 C 83.6612,78.2475 81.8278,78.2475 80,79.5C 79.5005,85.8246 79.3338,92.1579 79.5,98.5C 78.5184,95.0381 78.185,91.3714 78.5,87.5C 78.3354,84.4816 78.502,81.4816 79,78.5C 81.7884,75.6653 83.9551,75.9986 85.5,79.5 Z"/></g>
<g><path style="opacity:1" fill="#2f1e1a" d="M 35.5,78.5 C 38.0684,82.8556 40.0684,87.5223 41.5,92.5C 38.5422,88.3089 36.5422,83.6422 35.5,78.5 Z"/></g>
<g><path style="opacity:1" fill="#2d1c18" d="M 41.5,92.5 C 44.0684,96.8556 46.0684,101.522 47.5,106.5C 44.5422,102.309 42.5422,97.6422 41.5,92.5 Z"/></g>
<g><path style="opacity:1" fill="#2d1c18" d="M 47.5,106.5 C 50.0684,110.856 52.0684,115.522 53.5,120.5C 50.5422,116.309 48.5422,111.642 47.5,106.5 Z"/></g>
<g><path style="opacity:1" fill="#251a18" d="M 115.5,111.5 C 115.293,114.241 114.293,116.574 112.5,118.5C 112.707,115.759 113.707,113.426 115.5,111.5 Z"/></g>
<g><path style="opacity:1" fill="#fdfdfd" d="M -0.5,116.5 C 6.46741,157.802 30.4674,182.802 71.5,191.5C 47.5,191.5 23.5,191.5 -0.5,191.5C -0.5,166.5 -0.5,141.5 -0.5,116.5 Z"/></g>
<g><path style="opacity:1" fill="#251a18" d="M 112.5,118.5 C 112.293,121.241 111.293,123.574 109.5,125.5C 109.707,122.759 110.707,120.426 112.5,118.5 Z"/></g>
<g><path style="opacity:1" fill="#fdfdfd" d="M 165.5,118.5 C 165.5,142.833 165.5,167.167 165.5,191.5C 141.5,191.5 117.5,191.5 93.5,191.5C 133.621,183.045 157.621,158.712 165.5,118.5 Z"/></g>
<g><path style="opacity:1" fill="#2d1c18" d="M 53.5,120.5 C 56.0684,124.856 58.0684,129.522 59.5,134.5C 56.5422,130.309 54.5422,125.642 53.5,120.5 Z"/></g>
<g><path style="opacity:1" fill="#251a18" d="M 109.5,125.5 C 109.293,128.241 108.293,130.574 106.5,132.5C 106.707,129.759 107.707,127.426 109.5,125.5 Z"/></g>
<g><path style="opacity:1" fill="#251a18" d="M 106.5,132.5 C 106.293,135.241 105.293,137.574 103.5,139.5C 103.707,136.759 104.707,134.426 106.5,132.5 Z"/></g>
<g><path style="opacity:1" fill="#251a18" d="M 103.5,139.5 C 103.293,142.241 102.293,144.574 100.5,146.5C 100.707,143.759 101.707,141.426 103.5,139.5 Z"/></g>
<g><path style="opacity:1" fill="#251a18" d="M 100.5,146.5 C 100.293,149.241 99.2927,151.574 97.5,153.5C 97.7073,150.759 98.7073,148.426 100.5,146.5 Z"/></g>
<g><path style="opacity:1" fill="#251a18" d="M 97.5,153.5 C 97.2927,156.241 96.2927,158.574 94.5,160.5C 94.7073,157.759 95.7073,155.426 97.5,153.5 Z"/></g>
<g><path style="opacity:1" fill="#2d1f1c" d="M 59.5,134.5 C 67.396,151.3 75.0627,168.3 82.5,185.5C 83.5207,184.099 84.5207,182.765 85.5,181.5C 85.5979,183.553 84.9313,185.22 83.5,186.5C 82.8333,186.5 82.1667,186.5 81.5,186.5C 73.6485,169.455 66.3152,152.121 59.5,134.5 Z"/></g>
<g><path style="opacity:1" fill="#251a18" d="M 94.5,160.5 C 94.2927,163.241 93.2927,165.574 91.5,167.5C 91.7073,164.759 92.7073,162.426 94.5,160.5 Z"/></g>
<g><path style="opacity:1" fill="#251a18" d="M 91.5,167.5 C 91.2927,170.241 90.2927,172.574 88.5,174.5C 88.7073,171.759 89.7073,169.426 91.5,167.5 Z"/></g>
<g><path style="opacity:1" fill="#241a17" d="M 88.5,174.5 C 88.2927,177.241 87.2927,179.574 85.5,181.5C 85.7073,178.759 86.7073,176.426 88.5,174.5 Z"/></g>
</svg>

<svg xmlns="http://www.w3.org/2000/svg" width="166" height="192" style="shape-rendering:geometricPrecision;text-rendering:geometricPrecision;image-rendering:optimizeQuality;fill-rule:evenodd;clip-rule:evenodd"><path style="opacity:1" fill="#090605" d="M-.5-.5h166v119c-7.879 40.212-31.879 64.545-72 73h-22c-41.033-8.698-65.033-33.698-72-75V-.5z"/><path style="opacity:1" fill="#43403e" d="M160.5 4.5c-52-1.333-104-1.333-156 0-.543-.06-.876-.393-1-1a3121.008 3121.008 0 0 1 158 0c-.124.607-.457.94-1 1z"/><path style="opacity:1" fill="#fdfdfd" d="M160.5 4.5v2a2447.957 2447.957 0 0 0-45 105c-1.793 1.926-2.793 4.259-3 7-1.793 1.926-2.793 4.259-3 7-1.793 1.926-2.793 4.259-3 7-1.793 1.926-2.793 4.259-3 7-1.793 1.926-2.793 4.259-3 7-1.793 1.926-2.793 4.259-3 7-1.793 1.926-2.793 4.259-3 7-1.793 1.926-2.793 4.259-3 7-1.793 1.926-2.793 4.259-3 7-1.793 1.926-2.793 4.259-3 7-.98 1.265-1.98 2.599-3 4a1790.96 1790.96 0 0 0-23-51c-1.432-4.978-3.432-9.644-6-14-1.432-4.978-3.432-9.644-6-14-1.432-4.978-3.432-9.644-6-14-1.432-4.978-3.432-9.644-6-14-.207-2.74-1.207-5.074-3-7-.207-2.74-1.207-5.074-3-7-.207-2.74-1.207-5.074-3-7-.207-2.74-1.207-5.074-3-7-.207-2.74-1.207-5.074-3-7-.207-2.74-1.207-5.074-3-7-.207-2.74-1.207-5.074-3-7-.207-2.74-1.207-5.074-3-7-.207-2.74-1.207-5.074-3-7-.207-2.74-1.207-5.074-3-7 .067-1.459-.266-2.792-1-4 52-1.333 104-1.333 156 0z"/><path style="opacity:1" fill="#2d1713" d="M161.5 112.5c.167-35.002 0-70.002-.5-105a7442.255 7442.255 0 0 1-45.5 104 2447.957 2447.957 0 0 1 45-105c.617-.11 1.117-.444 1.5-1 .831 35.836.664 71.502-.5 107z"/><path style="opacity:1" fill="#d63023" d="M5.5 8.5c.207 2.74 1.207 5.074 3 7 .207 2.74 1.207 5.074 3 7 .207 2.74 1.207 5.074 3 7 .207 2.74 1.207 5.074 3 7 .207 2.74 1.207 5.074 3 7 .207 2.74 1.207 5.074 3 7 .207 2.74 1.207 5.074 3 7 .207 2.74 1.207 5.074 3 7 .207 2.74 1.207 5.074 3 7 .207 2.74 1.207 5.074 3 7 1.042 5.142 3.042 9.809 6 14 1.042 5.142 3.042 9.809 6 14 1.042 5.142 3.042 9.809 6 14 1.042 5.142 3.042 9.809 6 14a901.677 901.677 0 0 0 22 52c-33.084-.484-56.918-15.818-71.5-46a89.637 89.637 0 0 1-6-22 3136.234 3136.234 0 0 1 0-112c.278.916.778 1.582 1.5 2z"/><path style="opacity:1" fill="#d73023" d="M161.5 112.5c-5.197 44.197-29.864 69.197-74 75-1.545-.011-2.878-.344-4-1 1.431-1.28 2.098-2.947 2-5 1.793-1.926 2.793-4.259 3-7 1.793-1.926 2.793-4.259 3-7 1.793-1.926 2.793-4.259 3-7 1.793-1.926 2.793-4.259 3-7 1.793-1.926 2.793-4.259 3-7 1.793-1.926 2.793-4.259 3-7 1.793-1.926 2.793-4.259 3-7 1.793-1.926 2.793-4.259 3-7 1.793-1.926 2.793-4.259 3-7 1.793-1.926 2.793-4.259 3-7A7442.255 7442.255 0 0 0 161 7.5c.5 34.998.667 69.998.5 105z"/><path style="opacity:1" fill="#2f221f" d="M5.5 8.5c1.793 1.926 2.793 4.26 3 7-1.793-1.926-2.793-4.26-3-7z"/><path style="opacity:1" fill="#2e221f" d="M8.5 15.5c1.793 1.926 2.793 4.26 3 7-1.793-1.926-2.793-4.26-3-7zM11.5 22.5c1.793 1.926 2.793 4.26 3 7-1.793-1.926-2.793-4.26-3-7zM14.5 29.5c1.793 1.926 2.793 4.26 3 7-1.793-1.926-2.793-4.26-3-7zM17.5 36.5c1.793 1.926 2.793 4.26 3 7-1.793-1.926-2.793-4.26-3-7z"/><path style="opacity:1" fill="#030202" d="M85.5 79.5c-1.545-3.501-3.712-3.835-6.5-1a40.936 40.936 0 0 0-.5 9h-37a4.932 4.932 0 0 1 .5-3c4.035-3.7 7.702-7.7 11-12a318.536 318.536 0 0 1 30-30 858.37 858.37 0 0 1 40 42c.483.948.649 1.948.5 3h-37c.306-2.885-.027-5.552-1-8z"/><path style="opacity:1" fill="#2e221f" d="M20.5 43.5c1.793 1.926 2.793 4.26 3 7-1.793-1.926-2.793-4.26-3-7zM23.5 50.5c1.793 1.926 2.793 4.26 3 7-1.793-1.926-2.793-4.26-3-7zM26.5 57.5c1.793 1.926 2.793 4.26 3 7-1.793-1.926-2.793-4.26-3-7zM29.5 64.5c1.793 1.926 2.793 4.26 3 7-1.793-1.926-2.793-4.26-3-7zM32.5 71.5c1.793 1.926 2.793 4.26 3 7-1.793-1.926-2.793-4.26-3-7z"/><path style="opacity:1" fill="#040403" d="M85.5 79.5v13h9a961.468 961.468 0 0 0 1.5 33c-2.667 1.333-5.333 1.333-8 0-.034-8.991.132-17.991.5-27h-9c-.166-6.342 0-12.675.5-19 1.828-1.252 3.661-1.252 5.5 0z"/><path style="opacity:1" fill="#918d8a" d="M85.5 79.5c-1.839-1.252-3.672-1.252-5.5 0a180.95 180.95 0 0 0-.5 19c-.982-3.462-1.315-7.129-1-11a40.936 40.936 0 0 1 .5-9c2.788-2.835 4.955-2.501 6.5 1z"/><path style="opacity:1" fill="#2f1e1a" d="M35.5 78.5c2.568 4.356 4.568 9.022 6 14-2.958-4.191-4.958-8.858-6-14z"/><path style="opacity:1" fill="#2d1c18" d="M41.5 92.5c2.568 4.356 4.568 9.022 6 14-2.958-4.191-4.958-8.858-6-14zM47.5 106.5c2.568 4.356 4.568 9.022 6 14-2.958-4.191-4.958-8.858-6-14z"/><path style="opacity:1" fill="#251a18" d="M115.5 111.5c-.207 2.741-1.207 5.074-3 7 .207-2.741 1.207-5.074 3-7z"/><path style="opacity:1" fill="#fdfdfd" d="M-.5 116.5c6.967 41.302 30.967 66.302 72 75h-72v-75z"/><path style="opacity:1" fill="#251a18" d="M112.5 118.5c-.207 2.741-1.207 5.074-3 7 .207-2.741 1.207-5.074 3-7z"/><path style="opacity:1" fill="#fdfdfd" d="M165.5 118.5v73h-72c40.121-8.455 64.121-32.788 72-73z"/><path style="opacity:1" fill="#2d1c18" d="M53.5 120.5c2.568 4.356 4.568 9.022 6 14-2.958-4.191-4.958-8.858-6-14z"/><path style="opacity:1" fill="#251a18" d="M109.5 125.5c-.207 2.741-1.207 5.074-3 7 .207-2.741 1.207-5.074 3-7zM106.5 132.5c-.207 2.741-1.207 5.074-3 7 .207-2.741 1.207-5.074 3-7zM103.5 139.5c-.207 2.741-1.207 5.074-3 7 .207-2.741 1.207-5.074 3-7zM100.5 146.5c-.207 2.741-1.207 5.074-3 7 .207-2.741 1.207-5.074 3-7zM97.5 153.5c-.207 2.741-1.207 5.074-3 7 .207-2.741 1.207-5.074 3-7z"/><path style="opacity:1" fill="#2d1f1c" d="M59.5 134.5a1790.96 1790.96 0 0 1 23 51c1.02-1.401 2.02-2.735 3-4 .098 2.053-.569 3.72-2 5h-2a901.677 901.677 0 0 1-22-52z"/><path style="opacity:1" fill="#251a18" d="M94.5 160.5c-.207 2.741-1.207 5.074-3 7 .207-2.741 1.207-5.074 3-7zM91.5 167.5c-.207 2.741-1.207 5.074-3 7 .207-2.741 1.207-5.074 3-7z"/><path style="opacity:1" fill="#241a17" d="M88.5 174.5c-.207 2.741-1.207 5.074-3 7 .207-2.741 1.207-5.074 3-7z"/></svg>
